; HEADER_BLOCK_START
; generated by OrcaSlicer 1.8.0-beta1 on 2023-11-06 at 10:44:15
; total layer number: 4
; HEADER_BLOCK_END


;
;
; external perimeters extrusion width = 0.40mm
; perimeters extrusion width = 0.45mm
; infill extrusion width = 0.45mm
; solid infill extrusion width = 0.45mm
; top infill extrusion width = 0.38mm
; first layer extrusion width = 0.42mm

; EXECUTABLE_BLOCK_START
EXCLUDE_OBJECT_DEFINE NAME=Bed_Level_Stripes.stl_id_0_copy_0 CENTER=112.5,112.5 POLYGON=[[28.7,37.5],[196.3,37.5],[196.3,187.5],[28.7,187.5],[28.7,37.5]]
M73 P0 R4
;TYPE:Custom
M413 S0 ; disable Power Loss Recovery
G90 ; use absolute coordinates
M83 ; extruder relative mode
M104 S120 ; set temporary nozzle temp to prevent oozing during homing and auto bed leveling
M140 S60 ; set final bed temp
G4 S10 ; allow partial nozzle warmup
G28 ; home all axis
;G29 ; run abl mesh
M420 S1 ; load mesh
G1 Z50 F240
G1 X2 Y10 F3000
M104 S210 ; set final nozzle temp
M190 S60 ; wait for bed temp to stabilize
M109 S210 ; wait for nozzle temp to stabilize
M73 P4 R4
G1 Z0.28 F240
G92 E0
G1 Y140 E10 F1500 ; prime the nozzle
M73 P8 R4
G1 X2.3 F5000
G92 E0
M73 P10 R4
G1 Y10 E10 F1200 ; prime the nozzle
G92 E0
G90
G21
M83 ; use relative distances for extrusion
; filament start gcode
M106 S0
;LAYER_CHANGE
;Z:0.2
;HEIGHT:0.2
;BEFORE_LAYER_CHANGE
G92 E0
;0.2


G1 E-5 F3600
;AFTER_LAYER_CHANGE
;0.2
;_SET_FAN_SPEED_CHANGING_LAYER
SET_VELOCITY_LIMIT ACCEL=700 ACCEL_TO_DECEL=350
M73 P12 R4
G1 Z.4 F18000
G1 X27.708 Y36.544
G1 Z.4
G1 Z.2
G1 E5 F3600
;TYPE:Skirt
;WIDTH:0.42
G1 F3000
G1 X28.7 Y36.123 E.03311
G1 X196.3 Y36.123 E5.14988
G1 X197.256 Y36.508 E.03166
M73 P14 R4
G1 X197.677 Y37.5 E.03311
G1 X197.677 Y187.5 E4.60908
G1 X197.292 Y188.456 E.03166
M73 P15 R4
G1 X196.3 Y188.877 E.03311
G1 X28.7 Y188.877 E5.14988
G1 X27.744 Y188.492 E.03166
M73 P16 R4
G1 X27.323 Y187.5 E.03311
G1 X27.323 Y37.5 E4.60908
G1 X27.693 Y36.582 E.03043
; printing object Bed_Level_Stripes.stl id:0 copy 0
;WIPE_START
M73 P17 R4
G1 X28.603 Y36.167 E-5
;WIPE_END
EXCLUDE_OBJECT_START NAME=Bed_Level_Stripes.stl_id_0_copy_0
G1 Z.6 F18000
G1 X79.073 Y186.873 Z.6
G1 Z.2
G1 E5 F3600
;TYPE:Outer wall
;WIDTH:0.468402
G1 F3000
G1 X79.111 Y186.492 E.0133
;WIDTH:0.42
G1 X79.112 Y38.499 E4.54742
;WIDTH:0.46844
G1 X79.174 Y37.774 E.02523
M73 P18 R3
G1 X79.905 Y37.711 E.02547
;WIDTH:0.419998
G1 X94.899 Y37.712 E.46072
;WIDTH:0.468439
G1 X95.626 Y37.774 E.0253
G1 X95.689 Y38.503 E.0254
;WIDTH:0.42
G1 X95.689 Y186.492 E4.54727
;WIDTH:0.468402
M73 P19 R3
G1 X95.727 Y186.873 E.0133
M73 P20 R3
G1 X96.099 Y186.911 E.01299
;WIDTH:0.42
G1 X111.901 Y186.911 E.48553
;WIDTH:0.468402
G1 X112.273 Y186.873 E.01299
G1 X112.311 Y186.492 E.0133
;WIDTH:0.42
G1 X112.312 Y38.499 E4.54742
;WIDTH:0.46844
G1 X112.374 Y37.774 E.02523
M73 P21 R3
G1 X113.105 Y37.711 E.02547
;WIDTH:0.419998
G1 X128.099 Y37.712 E.46072
;WIDTH:0.468439
G1 X128.826 Y37.774 E.0253
G1 X128.889 Y38.503 E.0254
;WIDTH:0.419999
G1 X128.889 Y186.492 E4.54726
;WIDTH:0.468402
G1 X128.927 Y186.873 E.0133
M73 P22 R3
G1 X129.299 Y186.911 E.01299
;WIDTH:0.42
G1 X145.101 Y186.911 E.48553
;WIDTH:0.468402
G1 X145.473 Y186.873 E.01299
G1 X145.511 Y186.492 E.0133
;WIDTH:0.42
G1 X145.512 Y38.499 E4.54742
;WIDTH:0.46844
G1 X145.574 Y37.774 E.02523
M73 P23 R3
G1 X146.305 Y37.711 E.02547
;WIDTH:0.419998
G1 X161.299 Y37.712 E.46072
;WIDTH:0.468439
G1 X162.026 Y37.774 E.0253
G1 X162.089 Y38.503 E.0254
;WIDTH:0.42
G1 X162.089 Y186.492 E4.54727
;WIDTH:0.468402
G1 X162.127 Y186.873 E.0133
M73 P24 R3
G1 X162.499 Y186.911 E.01299
;WIDTH:0.419999
G1 X178.301 Y186.911 E.48552
;WIDTH:0.468402
G1 X178.673 Y186.873 E.01299
G1 X178.711 Y186.492 E.0133
;WIDTH:0.420001
G1 X178.712 Y38.499 E4.54743
;WIDTH:0.468402
G1 X178.774 Y37.774 E.02522
M73 P25 R3
G1 X179.494 Y37.711 E.02508
;WIDTH:0.419999
G1 X195.311 Y37.712 E.48598
;WIDTH:0.468409
G1 X196.026 Y37.774 E.02491
G1 X196.036 Y37.965 E.00664
G1 X196.089 Y38.505 E.01883
;WIDTH:0.419999
G1 X196.089 Y186.974 E4.56202
G1 X196.058 Y187.219 E.00758
M73 P26 R3
G1 X195.742 Y187.219 E.00972
G1 X195.711 Y186.974 E.00758
G1 X195.711 Y38.51 E4.56187
;WIDTH:0.468409
G1 X195.673 Y38.127 E.01337
M73 P27 R3
G1 X195.301 Y38.089 E.01299
;WIDTH:0.42
G1 X179.499 Y38.089 E.48553
;WIDTH:0.468402
G1 X179.127 Y38.127 E.01299
M73 P28 R3
G1 X179.089 Y38.508 E.0133
;WIDTH:0.42
G1 X179.088 Y186.501 E4.54742
;WIDTH:0.468402
G1 X179.026 Y187.226 E.02522
M73 P29 R3
G1 X178.306 Y187.289 E.02508
;WIDTH:0.419999
G1 X162.489 Y187.288 E.48598
;WIDTH:0.468402
G1 X161.774 Y187.226 E.0249
G1 X161.711 Y186.497 E.02539
;WIDTH:0.42
G1 X161.711 Y38.508 E4.54727
;WIDTH:0.468439
G1 X161.673 Y38.127 E.0133
M73 P30 R3
G1 X161.29 Y38.089 E.01337
;WIDTH:0.419998
G1 X146.31 Y38.089 E.46027
;WIDTH:0.46844
G1 X145.927 Y38.127 E.01337
G1 X145.889 Y38.508 E.0133
;WIDTH:0.42
G1 X145.888 Y186.501 E4.54742
;WIDTH:0.468402
G1 X145.826 Y187.226 E.02522
M73 P31 R3
G1 X145.106 Y187.289 E.02508
;WIDTH:0.42
G1 X129.289 Y187.288 E.48598
;WIDTH:0.468402
G1 X128.574 Y187.226 E.0249
G1 X128.511 Y186.497 E.02539
;WIDTH:0.419999
G1 X128.511 Y38.508 E4.54726
;WIDTH:0.468439
G1 X128.473 Y38.127 E.0133
M73 P32 R3
G1 X128.09 Y38.089 E.01337
;WIDTH:0.419998
G1 X113.11 Y38.089 E.46027
;WIDTH:0.46844
G1 X112.727 Y38.127 E.01337
G1 X112.689 Y38.508 E.0133
;WIDTH:0.42
G1 X112.688 Y186.501 E4.54742
;WIDTH:0.468402
G1 X112.626 Y187.226 E.02522
M73 P33 R3
G1 X111.906 Y187.289 E.02508
;WIDTH:0.42
G1 X96.089 Y187.288 E.48598
;WIDTH:0.468402
G1 X95.374 Y187.226 E.0249
G1 X95.311 Y186.497 E.02539
;WIDTH:0.42
G1 X95.311 Y38.508 E4.54727
;WIDTH:0.468439
G1 X95.273 Y38.127 E.0133
M73 P34 R3
G1 X94.89 Y38.089 E.01337
;WIDTH:0.419998
G1 X79.91 Y38.089 E.46027
;WIDTH:0.46844
G1 X79.527 Y38.127 E.01337
G1 X79.489 Y38.508 E.0133
;WIDTH:0.42
G1 X79.488 Y186.501 E4.54742
;WIDTH:0.468402
G1 X79.426 Y187.226 E.02522
M73 P36 R3
G1 X78.706 Y187.289 E.02508
;WIDTH:0.42
G1 X62.889 Y187.288 E.48598
;WIDTH:0.468402
G1 X62.174 Y187.226 E.0249
G1 X62.111 Y186.497 E.02539
;WIDTH:0.42
G1 X62.111 Y38.509 E4.54726
;WIDTH:0.468322
G1 X62.073 Y38.127 E.01331
M73 P37 R3
G1 X61.718 Y38.089 E.0124
;WIDTH:0.419999
G1 X46.682 Y38.089 E.46199
;WIDTH:0.468347
G1 X46.327 Y38.127 E.01239
G1 X46.289 Y38.509 E.01331
;WIDTH:0.42
G1 X46.288 Y186.501 E4.54741
;WIDTH:0.468403
G1 X46.226 Y187.226 E.02522
M73 P38 R3
G1 X45.506 Y187.289 E.02508
;WIDTH:0.42
G1 X29.689 Y187.288 E.48598
;WIDTH:0.468408
G1 X28.974 Y187.226 E.02491
G1 X28.911 Y186.495 E.02546
;WIDTH:0.42
G1 X28.911 Y38.026 E4.56203
G1 X28.942 Y37.781 E.00758
M73 P39 R2
G1 X29.258 Y37.781 E.00972
G1 X29.289 Y38.026 E.00758
G1 X29.289 Y186.49 E4.56188
;WIDTH:0.468408
G1 X29.327 Y186.873 E.01337
M73 P40 R2
G1 X29.699 Y186.911 E.01299
;WIDTH:0.42
G1 X45.501 Y186.911 E.48553
;WIDTH:0.468403
G1 X45.873 Y186.873 E.01299
G1 X45.911 Y186.492 E.0133
;WIDTH:0.419999
G1 X45.912 Y38.499 E4.5474
;WIDTH:0.468347
G1 X45.974 Y37.774 E.02521
M73 P41 R2
G1 X46.677 Y37.711 E.02447
;WIDTH:0.419999
G1 X61.728 Y37.712 E.46247
;WIDTH:0.468322
G1 X62.426 Y37.774 E.02429
G1 X62.489 Y38.504 E.02538
;WIDTH:0.42
G1 X62.489 Y186.492 E4.54726
;WIDTH:0.468402
G1 X62.527 Y186.873 E.0133
M73 P42 R2
G1 X62.899 Y186.911 E.01299
;WIDTH:0.42
G1 X78.701 Y186.911 E.48553
;WIDTH:0.468402
G1 X79.034 Y186.877 E.0116
; stop printing object Bed_Level_Stripes.stl id:0 copy 0
M106 S255
;LAYER_CHANGE
;Z:0.36
;HEIGHT:0.16
;BEFORE_LAYER_CHANGE
G92 E0
;0.36


;WIPE_START
G1 F3000
G1 X79.111 Y186.492 E-1.96835
G1 X79.111 Y185.885 E-3.03166
;WIPE_END
EXCLUDE_OBJECT_END NAME=Bed_Level_Stripes.stl_id_0_copy_0
;AFTER_LAYER_CHANGE
;0.36
;_SET_FAN_SPEED_CHANGING_LAYER
SET_VELOCITY_LIMIT ACCEL=4000 ACCEL_TO_DECEL=2000
M104 S205 ; set nozzle temperature
M140 S60 ; set bed temperature
SET_VELOCITY_LIMIT ACCEL=5000 ACCEL_TO_DECEL=2500
G1 Z.6 F18000
M73 P43 R2
G1 X79.111 Y188.877 Z.6
G1 Z.36
G1 E5 F3600
SET_VELOCITY_LIMIT ACCEL=4000 ACCEL_TO_DECEL=2000
;TYPE:Skirt
;WIDTH:0.42
G1 X28.7 Y188.877 E1.26741
G1 X27.744 Y188.492 E.0259
G1 X27.323 Y187.5 E.02709
G1 X27.323 Y37.5 E3.7712
G1 X27.708 Y36.544 E.0259
M73 P44 R2
G1 X28.7 Y36.123 E.02709
G1 X196.3 Y36.123 E4.21369
G1 X197.256 Y36.508 E.0259
M73 P45 R2
G1 X197.677 Y37.5 E.02709
G1 X197.677 Y187.5 E3.7712
G1 X197.292 Y188.456 E.0259
M73 P46 R2
G1 X196.3 Y188.877 E.02709
G1 X79.151 Y188.877 E2.94527
; printing object Bed_Level_Stripes.stl id:0 copy 0
SET_VELOCITY_LIMIT ACCEL=5000 ACCEL_TO_DECEL=2500
;WIPE_START
G1 X78.151 Y188.877 E-5
;WIPE_END
EXCLUDE_OBJECT_START NAME=Bed_Level_Stripes.stl_id_0_copy_0
G1 Z.76 F18000
G1 X79.109 Y186.717 Z.76
G1 Z.36
G1 E5 F3600
SET_VELOCITY_LIMIT ACCEL=2500 ACCEL_TO_DECEL=1250
;TYPE:Outer wall
;WIDTH:0.417168
G1 F4800
G1 X79.109 Y38.283 E3.70444
;WIDTH:0.45001
G1 X79.125 Y38.012 E.00735
;WIDTH:0.482851
M73 P47 R2
G1 X79.141 Y37.741 E.00793
G1 X79.412 Y37.725 E.00793
;WIDTH:0.45001
G1 X79.683 Y37.709 E.00735
;WIDTH:0.417168
G1 X95.117 Y37.709 E.38519
;WIDTH:0.45001
G1 X95.388 Y37.725 E.00735
;WIDTH:0.482851
G1 X95.659 Y37.741 E.00793
G1 X95.675 Y38.012 E.00793
;WIDTH:0.45001
G1 X95.691 Y38.283 E.00735
;WIDTH:0.417168
G1 X95.691 Y186.717 E3.70444
;WIDTH:0.45001
G1 X95.708 Y186.796 E.00219
;WIDTH:0.482851
M73 P48 R2
G1 X95.724 Y186.876 E.00237
G1 X95.804 Y186.892 E.00237
;WIDTH:0.45001
G1 X95.883 Y186.909 E.00219
;WIDTH:0.417168
G1 X112.117 Y186.909 E.40516
;WIDTH:0.45001
G1 X112.196 Y186.892 E.00219
;WIDTH:0.482851
G1 X112.276 Y186.876 E.00237
G1 X112.292 Y186.796 E.00237
;WIDTH:0.45001
G1 X112.309 Y186.717 E.00219
;WIDTH:0.417168
G1 X112.309 Y38.283 E3.70444
;WIDTH:0.45001
G1 X112.325 Y38.012 E.00735
;WIDTH:0.482851
M73 P49 R2
G1 X112.341 Y37.741 E.00793
G1 X112.612 Y37.725 E.00793
;WIDTH:0.45001
G1 X112.883 Y37.709 E.00735
;WIDTH:0.417168
G1 X128.317 Y37.709 E.38519
;WIDTH:0.45001
G1 X128.588 Y37.725 E.00735
;WIDTH:0.482851
G1 X128.859 Y37.741 E.00793
G1 X128.875 Y38.012 E.00793
;WIDTH:0.45001
G1 X128.891 Y38.283 E.00735
;WIDTH:0.417168
G1 X128.891 Y186.717 E3.70444
;WIDTH:0.45001
G1 X128.908 Y186.796 E.00219
;WIDTH:0.482851
G1 X128.924 Y186.876 E.00237
G1 X129.004 Y186.892 E.00237
;WIDTH:0.45001
G1 X129.083 Y186.909 E.00219
;WIDTH:0.417168
G1 X145.317 Y186.909 E.40516
;WIDTH:0.45001
G1 X145.396 Y186.892 E.00219
;WIDTH:0.482851
G1 X145.476 Y186.876 E.00237
G1 X145.492 Y186.796 E.00237
;WIDTH:0.450009
G1 X145.509 Y186.717 E.00219
;WIDTH:0.417167
G1 X145.509 Y38.283 E3.70443
;WIDTH:0.450009
G1 X145.525 Y38.012 E.00735
;WIDTH:0.482851
M73 P50 R2
G1 X145.541 Y37.741 E.00793
G1 X145.812 Y37.725 E.00793
;WIDTH:0.45001
G1 X146.083 Y37.709 E.00735
;WIDTH:0.417168
G1 X161.517 Y37.709 E.38519
;WIDTH:0.45001
G1 X161.788 Y37.725 E.00735
;WIDTH:0.482851
G1 X162.059 Y37.741 E.00793
G1 X162.075 Y38.012 E.00793
;WIDTH:0.450009
G1 X162.091 Y38.283 E.00735
;WIDTH:0.417167
G1 X162.091 Y186.717 E3.70443
;WIDTH:0.450009
G1 X162.108 Y186.796 E.00219
;WIDTH:0.482851
M73 P51 R2
G1 X162.124 Y186.876 E.00237
G1 X162.204 Y186.892 E.00237
;WIDTH:0.45001
G1 X162.283 Y186.909 E.00219
;WIDTH:0.417168
G1 X178.517 Y186.909 E.40516
;WIDTH:0.45001
G1 X178.596 Y186.892 E.00219
;WIDTH:0.482852
G1 X178.676 Y186.876 E.00237
G1 X178.692 Y186.796 E.00237
;WIDTH:0.450011
G1 X178.709 Y186.717 E.00219
;WIDTH:0.417169
G1 X178.709 Y38.283 E3.70445
;WIDTH:0.450011
G1 X178.725 Y38.012 E.00735
;WIDTH:0.482852
G1 X178.741 Y37.741 E.00793
G1 X179.012 Y37.725 E.00793
;WIDTH:0.45001
G1 X179.283 Y37.709 E.00735
;WIDTH:0.417168
G1 X195.517 Y37.709 E.40516
;WIDTH:0.45001
G1 X195.788 Y37.725 E.00735
;WIDTH:0.482851
M73 P52 R2
G1 X196.059 Y37.741 E.00793
G1 X196.059 Y37.966 E.00656
G1 X196.075 Y38.124 E.00466
;WIDTH:0.450009
G1 X196.091 Y38.283 E.00432
;WIDTH:0.417167
G1 X196.091 Y187.291 E3.71876
G1 X195.709 Y187.291 E.00955
G1 X195.709 Y38.283 E3.71876
;WIDTH:0.450009
G1 X195.692 Y38.204 E.00219
;WIDTH:0.482851
M73 P53 R2
G1 X195.676 Y38.124 E.00237
G1 X195.596 Y38.108 E.00237
;WIDTH:0.45001
G1 X195.517 Y38.091 E.00219
;WIDTH:0.417168
G1 X179.283 Y38.091 E.40516
;WIDTH:0.45001
G1 X179.204 Y38.108 E.00219
;WIDTH:0.482852
G1 X179.124 Y38.124 E.00237
G1 X179.108 Y38.204 E.00237
;WIDTH:0.450011
G1 X179.091 Y38.283 E.00219
;WIDTH:0.417169
G1 X179.091 Y186.717 E3.70445
;WIDTH:0.450011
G1 X179.075 Y186.988 E.00735
;WIDTH:0.482852
M73 P54 R2
G1 X179.059 Y187.259 E.00793
G1 X178.788 Y187.275 E.00793
;WIDTH:0.45001
G1 X178.517 Y187.291 E.00735
;WIDTH:0.417168
G1 X162.283 Y187.291 E.40516
;WIDTH:0.45001
G1 X162.012 Y187.275 E.00735
;WIDTH:0.482851
G1 X161.741 Y187.259 E.00793
G1 X161.725 Y186.988 E.00793
;WIDTH:0.450009
G1 X161.709 Y186.717 E.00735
;WIDTH:0.417167
G1 X161.709 Y38.283 E3.70443
;WIDTH:0.450009
G1 X161.692 Y38.204 E.00219
;WIDTH:0.482851
G1 X161.676 Y38.124 E.00237
G1 X161.596 Y38.108 E.00237
;WIDTH:0.45001
G1 X161.517 Y38.091 E.00219
;WIDTH:0.417168
G1 X146.083 Y38.091 E.38519
;WIDTH:0.45001
G1 X146.004 Y38.108 E.00219
;WIDTH:0.482851
G1 X145.924 Y38.124 E.00237
G1 X145.908 Y38.204 E.00237
;WIDTH:0.450009
G1 X145.891 Y38.283 E.00219
;WIDTH:0.417167
G1 X145.891 Y186.717 E3.70443
;WIDTH:0.450009
G1 X145.875 Y186.988 E.00735
;WIDTH:0.482851
M73 P55 R2
G1 X145.859 Y187.259 E.00793
G1 X145.588 Y187.275 E.00793
;WIDTH:0.45001
G1 X145.317 Y187.291 E.00735
;WIDTH:0.417168
G1 X129.083 Y187.291 E.40516
;WIDTH:0.45001
G1 X128.812 Y187.275 E.00735
;WIDTH:0.482851
G1 X128.541 Y187.259 E.00793
G1 X128.525 Y186.988 E.00793
;WIDTH:0.45001
G1 X128.509 Y186.717 E.00735
;WIDTH:0.417168
G1 X128.509 Y38.283 E3.70444
;WIDTH:0.45001
G1 X128.492 Y38.204 E.00219
;WIDTH:0.482851
M73 P56 R2
G1 X128.476 Y38.124 E.00237
G1 X128.396 Y38.108 E.00237
;WIDTH:0.45001
G1 X128.317 Y38.091 E.00219
;WIDTH:0.417168
G1 X112.883 Y38.091 E.38519
;WIDTH:0.45001
G1 X112.804 Y38.108 E.00219
;WIDTH:0.482851
G1 X112.724 Y38.124 E.00237
G1 X112.708 Y38.204 E.00237
;WIDTH:0.45001
G1 X112.691 Y38.283 E.00219
;WIDTH:0.417168
G1 X112.691 Y186.717 E3.70444
;WIDTH:0.45001
G1 X112.675 Y186.988 E.00735
;WIDTH:0.482851
G1 X112.659 Y187.259 E.00793
G1 X112.388 Y187.275 E.00793
;WIDTH:0.45001
G1 X112.117 Y187.291 E.00735
;WIDTH:0.417168
G1 X95.883 Y187.291 E.40516
;WIDTH:0.45001
G1 X95.612 Y187.275 E.00735
;WIDTH:0.482851
G1 X95.341 Y187.259 E.00793
G1 X95.325 Y186.988 E.00793
;WIDTH:0.45001
G1 X95.309 Y186.717 E.00735
;WIDTH:0.417168
G1 X95.309 Y38.283 E3.70444
;WIDTH:0.45001
G1 X95.292 Y38.204 E.00219
;WIDTH:0.482851
M73 P57 R2
G1 X95.276 Y38.124 E.00237
G1 X95.196 Y38.108 E.00237
;WIDTH:0.45001
G1 X95.117 Y38.091 E.00219
;WIDTH:0.417168
G1 X79.683 Y38.091 E.38519
;WIDTH:0.45001
G1 X79.604 Y38.108 E.00219
;WIDTH:0.482851
G1 X79.524 Y38.124 E.00237
G1 X79.508 Y38.204 E.00237
;WIDTH:0.45001
G1 X79.491 Y38.283 E.00219
;WIDTH:0.417168
G1 X79.491 Y186.717 E3.70444
;WIDTH:0.45001
G1 X79.475 Y186.988 E.00735
;WIDTH:0.482851
M73 P58 R2
G1 X79.459 Y187.259 E.00793
G1 X79.188 Y187.275 E.00793
;WIDTH:0.45001
G1 X78.917 Y187.291 E.00735
;WIDTH:0.417168
G1 X62.683 Y187.291 E.40516
;WIDTH:0.45001
G1 X62.412 Y187.275 E.00735
;WIDTH:0.482851
G1 X62.141 Y187.259 E.00793
G1 X62.125 Y186.988 E.00793
;WIDTH:0.45001
G1 X62.109 Y186.717 E.00735
;WIDTH:0.417168
G1 X62.109 Y38.283 E3.70444
;WIDTH:0.45001
G1 X62.092 Y38.204 E.00219
;WIDTH:0.482851
M73 P59 R2
G1 X62.076 Y38.124 E.00237
G1 X61.996 Y38.108 E.00237
;WIDTH:0.45001
G1 X61.917 Y38.091 E.00219
;WIDTH:0.417168
G1 X46.483 Y38.091 E.38519
;WIDTH:0.45001
G1 X46.404 Y38.108 E.00219
;WIDTH:0.482852
G1 X46.324 Y38.124 E.00237
G1 X46.308 Y38.204 E.00237
;WIDTH:0.450011
G1 X46.291 Y38.283 E.00219
;WIDTH:0.41717
G1 X46.291 Y186.717 E3.70446
;WIDTH:0.450011
G1 X46.275 Y186.988 E.00735
;WIDTH:0.482852
M73 P59 R1
G1 X46.259 Y187.259 E.00793
G1 X45.988 Y187.275 E.00793
;WIDTH:0.45001
G1 X45.717 Y187.291 E.00735
;WIDTH:0.417168
G1 X29.483 Y187.291 E.40516
;WIDTH:0.45001
G1 X29.212 Y187.275 E.00735
;WIDTH:0.482851
G1 X28.941 Y187.259 E.00793
G1 X28.925 Y186.988 E.00793
;WIDTH:0.45001
G1 X28.909 Y186.717 E.00735
;WIDTH:0.417168
G1 X28.909 Y37.709 E3.71877
G1 X29.291 Y37.709 E.00955
M73 P60 R1
G1 X29.291 Y186.717 E3.71877
;WIDTH:0.45001
G1 X29.308 Y186.796 E.00219
;WIDTH:0.482851
M73 P61 R1
G1 X29.324 Y186.876 E.00237
