; HEADER_BLOCK_START
; generated by OrcaSlicer 1.8.0-beta1 on 2023-11-07 at 18:41:29
; total layer number: 31
; HEADER_BLOCK_END


;
;
; external perimeters extrusion width = 0.40mm
; perimeters extrusion width = 0.45mm
; infill extrusion width = 0.45mm
; solid infill extrusion width = 0.45mm
; top infill extrusion width = 0.38mm
; support material extrusion width = 0.38mm
; first layer extrusion width = 0.42mm

; EXECUTABLE_BLOCK_START
EXCLUDE_OBJECT_DEFINE NAME=bottom.stl_id_0_copy_0 CENTER=112.5,112.5 POLYGON=[[45.5,36],[179.5,36],[179.5,189],[45.5,189],[45.5,36]]
M73 P0 R113
;TYPE:Custom
M413 S0 ; disable Power Loss Recovery
G90 ; use absolute coordinates
M83 ; extruder relative mode
M104 S120 ; set temporary nozzle temp to prevent oozing during homing and auto bed leveling
M140 S60 ; set final bed temp
G4 S10 ; allow partial nozzle warmup
G28 ; home all axis
;G29 ; run abl mesh
M420 S1 ; load mesh
G1 Z50 F240
G1 X2 Y10 F3000
M104 S210 ; set final nozzle temp
M190 S60 ; wait for bed temp to stabilize
M109 S210 ; wait for nozzle temp to stabilize
M73 P0 R112
G1 Z0.28 F240
G92 E0
G1 Y140 E10 F1500 ; prime the nozzle
G1 X2.3 F5000
G92 E0
G1 Y10 E10 F1200 ; prime the nozzle
G92 E0
G90
G21
M83 ; use relative distances for extrusion
; filament start gcode
M106 S0
;LAYER_CHANGE
;Z:0.2
;HEIGHT:0.2
;BEFORE_LAYER_CHANGE
G92 E0
;0.2


G1 E-5 F3600
;AFTER_LAYER_CHANGE
;0.2
;_SET_FAN_SPEED_CHANGING_LAYER
SET_VELOCITY_LIMIT ACCEL=700 ACCEL_TO_DECEL=350
G1 Z.4 F18000
G1 X44.508 Y35.044
G1 Z.4
G1 Z.2
G1 E5 F3600
;TYPE:Skirt
;WIDTH:0.42
G1 F3000
G1 X45.5 Y34.623 E.03311
G1 X179.5 Y34.623 E4.11745
G1 X180.456 Y35.008 E.03166
G1 X180.877 Y36 E.03311
G1 X180.877 Y189 E4.70126
G1 X180.492 Y189.956 E.03166
G1 X179.5 Y190.377 E.03311
G1 X45.5 Y190.377 E4.11745
G1 X44.544 Y189.992 E.03166
G1 X44.123 Y189 E.03311
G1 X44.123 Y36 E4.70126
G1 X44.493 Y35.082 E.03043
; printing object bottom.stl id:0 copy 0
;WIPE_START
G1 X45.403 Y34.667 E-5
;WIPE_END
EXCLUDE_OBJECT_START NAME=bottom.stl_id_0_copy_0
G1 Z.6 F18000
G1 X178.436 Y38.849 Z.6
G1 Z.2
G1 E5 F3600
;TYPE:Inner wall
;WIDTH:0.419999
G1 F3000
G1 X178.379 Y38.694 E.00506
G1 X178.057 Y38.141 E.01965
G1 X177.63 Y37.665 E.01965
G1 X177.117 Y37.284 E.01965
G1 X176.654 Y37.064 E.01574
G1 X178.436 Y37.064 E.05476
G1 X178.436 Y37.477 E.0127
G1 X178.436 Y38.809 E.04091
;WIPE_START
G1 X178.379 Y38.694 E-.6404
G1 X178.057 Y38.141 E-3.19813
G1 X177.902 Y37.968 E-1.16146
;WIPE_END
G1 Z.6 F18000
G1 X178.315 Y41.418 Z.6
G1 Z.2
G1 E5 F3600
G1 F3000
G1 X178.436 Y41.174 E.00837
G1 X178.436 Y183.849 E4.38399
G1 X178.295 Y183.523 E.01091
G1 X177.94 Y182.991 E.01965
G1 X177.486 Y182.541 E.01965
G1 X176.95 Y182.191 E.01965
G1 X176.355 Y181.957 E.01965
G1 X175.749 Y181.847 E.01892
G1 X175.244 Y181.849 E.0155
G1 X174.616 Y181.965 E.01964
G1 X174.044 Y182.193 E.01892
G1 X173.617 Y182.461 E.0155
G1 X173.144 Y182.892 E.01964
G1 X172.768 Y183.41 E.01965
G1 X172.535 Y183.894 E.01653
G1 X172.391 Y184.427 E.01696
G1 X172.34 Y185.065 E.01965
G1 X172.417 Y185.7 E.01965
G1 X172.621 Y186.306 E.01965
G1 X172.943 Y186.859 E.01965
G1 X173.37 Y187.335 E.01965
G1 X173.883 Y187.716 E.01964
G1 X174.326 Y187.936 E.0152
G1 X50.651 Y187.936 E3.80018
G1 X50.956 Y187.807 E.01018
G1 X51.383 Y187.539 E.0155
G1 X51.856 Y187.108 E.01964
G1 X52.232 Y186.59 E.01965
G1 X52.496 Y186.008 E.01965
G1 X52.637 Y185.384 E.01965
G1 X52.651 Y184.745 E.01965
G1 X52.535 Y184.116 E.01965
G1 X52.295 Y183.523 E.01965
G1 X51.94 Y182.991 E.01965
G1 X51.486 Y182.541 E.01965
G1 X51.043 Y182.237 E.01649
G1 X50.537 Y182.014 E.01699
G1 X50.049 Y181.886 E.0155
G1 X49.435 Y181.84 E.01892
G1 X48.8 Y181.917 E.01965
G1 X48.194 Y182.121 E.01964
G1 X47.752 Y182.364 E.0155
G1 X47.276 Y182.754 E.01892
G1 X46.869 Y183.248 E.01965
G1 X46.567 Y183.812 E.01965
G1 X46.564 Y119.651 E1.97147
G1 X46.705 Y119.977 E.01091
G1 X47.06 Y120.509 E.01965
G1 X47.514 Y120.959 E.01965
G1 X48.05 Y121.309 E.01965
G1 X48.645 Y121.543 E.01965
G1 X49.251 Y121.653 E.01892
G1 X49.756 Y121.651 E.0155
G1 X50.384 Y121.535 E.01964
G1 X50.977 Y121.295 E.01965
G1 X51.509 Y120.94 E.01965
G1 X51.945 Y120.505 E.01892
G1 X52.232 Y120.09 E.0155
G1 X52.496 Y119.508 E.01964
G1 X52.637 Y118.884 E.01965
G1 X52.651 Y118.245 E.01965
G1 X52.535 Y117.616 E.01965
G1 X52.295 Y117.023 E.01965
G1 X51.94 Y116.491 E.01965
G1 X51.486 Y116.041 E.01965
G1 X50.95 Y115.691 E.01965
G1 X50.468 Y115.487 E.01609
G1 X49.915 Y115.366 E.01739
G1 X49.411 Y115.339 E.0155
G1 X48.8 Y115.417 E.01892
G1 X48.194 Y115.621 E.01965
G1 X47.641 Y115.943 E.01965
G1 X47.165 Y116.369 E.01964
G1 X46.855 Y116.767 E.0155
G1 X46.567 Y117.312 E.01892
G1 X46.564 Y61.651 E1.71029
G1 X46.705 Y61.977 E.01091
G1 X47.06 Y62.509 E.01965
G1 X47.514 Y62.959 E.01965
G1 X48.05 Y63.309 E.01965
G1 X48.645 Y63.543 E.01965
G1 X49.251 Y63.653 E.01892
G1 X49.756 Y63.651 E.0155
G1 X50.418 Y63.522 E.02074
G1 X50.977 Y63.295 E.01854
G1 X51.509 Y62.94 E.01965
G1 X51.945 Y62.505 E.01892
G1 X52.232 Y62.09 E.0155
G1 X52.511 Y61.449 E.0215
G1 X52.637 Y60.884 E.01777
G1 X52.651 Y60.245 E.01965
G1 X52.535 Y59.616 E.01965
G1 X52.29 Y59.015 E.01994
G1 X51.94 Y58.491 E.01936
G1 X51.486 Y58.041 E.01965
G1 X50.95 Y57.691 E.01965
G1 X50.443 Y57.48 E.01688
G1 X49.915 Y57.366 E.0166
G1 X49.411 Y57.339 E.0155
G1 X48.8 Y57.417 E.01892
G1 X48.194 Y57.621 E.01965
G1 X47.641 Y57.943 E.01965
G1 X47.165 Y58.37 E.01965
G1 X46.784 Y58.883 E.01965
G1 X46.564 Y59.346 E.01574
G1 X46.564 Y37.064 E.68467
G1 X174.349 Y37.064 E3.92646
G1 X174.023 Y37.205 E.01091
G1 X173.508 Y37.544 E.01892
G1 X173.144 Y37.893 E.0155
G1 X172.768 Y38.41 E.01964
G1 X172.504 Y38.992 E.01965
G1 X172.363 Y39.616 E.01965
G1 X172.349 Y40.255 E.01965
G1 X172.465 Y40.884 E.01965
G1 X172.705 Y41.477 E.01965
G1 X173.06 Y42.009 E.01965
G1 X173.514 Y42.459 E.01965
G1 X173.957 Y42.763 E.01649
G1 X174.463 Y42.986 E.01699
G1 X174.951 Y43.114 E.0155
G1 X175.565 Y43.16 E.01892
G1 X176.2 Y43.083 E.01965
G1 X176.806 Y42.879 E.01965
G1 X177.359 Y42.557 E.01965
G1 X177.835 Y42.13 E.01965
G1 X178.216 Y41.617 E.01964
G1 X178.297 Y41.454 E.0056
G1 X177.984 Y41.233 F18000
G1 F3000
G1 X177.907 Y41.401 E.0057
G1 X177.575 Y41.857 E.01731
G1 X177.159 Y42.237 E.01731
G1 X176.675 Y42.525 E.01731
G1 X176.142 Y42.71 E.01732
G1 X175.584 Y42.784 E.01731
G1 X175.036 Y42.747 E.01687
G1 X174.612 Y42.639 E.01345
G1 X174.143 Y42.435 E.01571
G1 X173.73 Y42.15 E.01542
G1 X173.333 Y41.75 E.01732
G1 X173.025 Y41.278 E.01731
G1 X172.819 Y40.753 E.01731
G1 X172.722 Y40.198 E.01731
G1 X172.739 Y39.635 E.01731
G1 X172.869 Y39.087 E.01732
G1 X173.107 Y38.576 E.01731
G1 X173.442 Y38.123 E.01731
G1 X173.841 Y37.763 E.01652
G1 X174.325 Y37.475 E.01731
;WIDTH:0.458771
G1 X174.495 Y37.395 E.00637
;WIDTH:0.497543
G1 X174.665 Y37.315 E.00696
;WIDTH:0.536315
G1 X174.835 Y37.235 E.00756
G1 X175.387 Y37.178 E.02231
;WIDTH:0.508664
G1 X175.848 Y37.192 E.01749
G1 X176.118 Y37.276 E.01074
;WIDTH:0.464332
G1 X176.388 Y37.361 E.00972
;WIDTH:0.419999
G1 X176.901 Y37.593 E.01731
G1 X177.357 Y37.925 E.01732
G1 X177.737 Y38.341 E.01731
G1 X178.025 Y38.825 E.01732
;WIDTH:0.458262
G1 X178.105 Y39 E.00651
;WIDTH:0.496524
G1 X178.186 Y39.174 E.0071
;WIDTH:0.534786
G1 X178.266 Y39.349 E.0077
G1 X178.322 Y39.887 E.02171
;WIDTH:0.513489
G1 X178.299 Y40.442 E.02129
G1 X178.215 Y40.678 E.00959
;WIDTH:0.466744
G1 X178.131 Y40.913 E.00863
;WIDTH:0.419999
G1 X178.001 Y41.197 E.00958
G1 X177.647 Y41.08 F18000
;TYPE:Outer wall
G1 F3000
G1 X177.597 Y41.186 E.0036
G1 X177.316 Y41.584 E.01497
G1 X176.96 Y41.917 E.01498
G1 X176.544 Y42.171 E.01498
G1 X176.085 Y42.337 E.01498
G1 X175.603 Y42.407 E.01498
G1 X175.121 Y42.38 E.01483
G1 X174.76 Y42.293 E.01141
G1 X174.314 Y42.097 E.01497
G1 X173.916 Y41.816 E.01498
G1 X173.583 Y41.46 E.01498
G1 X173.329 Y41.044 E.01498
G1 X173.163 Y40.585 E.01498
G1 X173.093 Y40.103 E.01498
G1 X173.121 Y39.616 E.01498
G1 X173.247 Y39.145 E.01498
G1 X173.466 Y38.709 E.01498
G1 X173.763 Y38.33 E.01483
G1 X174.041 Y38.083 E.01141
G1 X174.456 Y37.829 E.01497
G1 X174.915 Y37.663 E.01498
G1 X175.392 Y37.593 E.01483
G1 X175.763 Y37.605 E.01141
G1 X176.239 Y37.707 E.01497
G1 X176.686 Y37.903 E.01498
G1 X177.176 Y38.282 E.01905
G1 X177.417 Y38.54 E.01085
G1 X177.671 Y38.956 E.01498
G1 X177.837 Y39.415 E.01498
G1 X177.907 Y39.887 E.01469
G1 X177.879 Y40.384 E.01527
G1 X177.755 Y40.85 E.01483
G1 X177.664 Y41.044 E.00658
;WIPE_START
G1 X177.597 Y41.186 E-.78511
G1 X177.316 Y41.584 E-2.43608
G1 X177.056 Y41.827 E-1.77881
;WIPE_END
G1 Z.6 F18000
G1 X95.373 Y60.886 Z.6
G1 Z.2
G1 E5 F3600
;TYPE:Inner wall
G1 F3000
G1 X95.349 Y60.755 E.00408
G1 X95.363 Y60.116 E.01964
G1 X95.462 Y59.622 E.0155
G1 X95.691 Y59.05 E.01892
G1 X96.023 Y58.54 E.0187
G1 X96.45 Y58.098 E.01888
G1 X97.023 Y57.705 E.02134
G1 X97.616 Y57.465 E.01965
G1 X98.244 Y57.349 E.01964
G1 X98.749 Y57.347 E.0155
G1 X99.355 Y57.457 E.01892
G1 X99.95 Y57.691 E.01965
G1 X100.486 Y58.041 E.01965
G1 X100.94 Y58.491 E.01965
G1 X101.295 Y59.023 E.01965
G1 X101.535 Y59.616 E.01965
G1 X101.651 Y60.245 E.01965
G1 X101.637 Y60.884 E.01964
G1 X101.495 Y61.515 E.01989
G1 X101.294 Y61.983 E.01563
G1 X100.959 Y62.486 E.01857
G1 X100.509 Y62.94 E.01965
G1 X99.977 Y63.295 E.01965
G1 X99.465 Y63.505 E.01701
G1 X99.2 Y63.583 E.00849
G1 X98.689 Y63.658 E.01585
G1 X98.177 Y63.648 E.01574
G1 X97.645 Y63.543 E.01666
G1 X97.05 Y63.309 E.01965
G1 X96.514 Y62.959 E.01965
G1 X96.089 Y62.54 E.01837
G1 X95.705 Y61.977 E.02092
G1 X95.465 Y61.384 E.01965
G1 X95.381 Y60.925 E.01434
G1 X95.742 Y60.81 F18000
G1 F3000
G1 X95.722 Y60.698 E.00348
G1 X95.739 Y60.135 E.01731
G1 X95.861 Y59.612 E.01652
G1 X96.093 Y59.099 E.01731
G1 X96.387 Y58.682 E.01566
G1 X96.75 Y58.333 E.01548
G1 X97.222 Y58.025 E.01731
G1 X97.747 Y57.819 E.01732
G1 X98.302 Y57.722 E.01731
G1 X98.839 Y57.736 E.01652
G1 X99.33 Y57.839 E.01541
G1 X99.801 Y58.038 E.01573
G1 X100.27 Y58.35 E.01731
G1 X100.667 Y58.75 E.01732
G1 X100.975 Y59.222 E.01731
G1 X101.181 Y59.747 E.01731
G1 X101.278 Y60.302 E.01731
G1 X101.261 Y60.865 E.01731
G1 X101.145 Y61.375 E.01609
G1 X100.944 Y61.84 E.01555
G1 X100.65 Y62.27 E.01602
G1 X100.25 Y62.667 E.01731
G1 X99.778 Y62.975 E.01731
G1 X99.253 Y63.181 E.01732
G1 X98.698 Y63.278 E.01731
G1 X98.161 Y63.264 E.01652
G1 X97.662 Y63.158 E.01568
G1 X97.199 Y62.962 E.01545
G1 X96.73 Y62.65 E.01731
G1 X96.362 Y62.28 E.01603
G1 X96.025 Y61.778 E.01858
G1 X95.819 Y61.253 E.01731
G1 X95.748 Y60.849 E.01261
G1 X96.121 Y60.715 F18000
;TYPE:Outer wall
G1 F3000
G1 X96.098 Y60.504 E.0065
G1 X96.154 Y59.977 E.0163
G1 X96.287 Y59.574 E.01302
G1 X96.417 Y59.294 E.00948
G1 X96.684 Y58.916 E.01424
G1 X97.04 Y58.583 E.01498
G1 X97.491 Y58.316 E.01609
G1 X97.915 Y58.163 E.01385
G1 X98.392 Y58.093 E.01483
G1 X98.763 Y58.105 E.01141
G1 X99.239 Y58.207 E.01497
G1 X99.686 Y58.403 E.01498
G1 X100.084 Y58.684 E.01498
G1 X100.417 Y59.04 E.01498
G1 X100.671 Y59.456 E.01498
G1 X100.837 Y59.915 E.01498
G1 X100.907 Y60.397 E.01498
G1 X100.88 Y60.879 E.01483
G1 X100.795 Y61.235 E.01126
G1 X100.597 Y61.686 E.01512
G1 X100.316 Y62.084 E.01498
M73 P1 R112
G1 X99.96 Y62.417 E.01498
G1 X99.544 Y62.671 E.01498
G1 X99.085 Y62.837 E.01498
G1 X98.608 Y62.907 E.01483
G1 X98.081 Y62.863 E.01626
G1 X97.761 Y62.793 E.01007
G1 X97.314 Y62.597 E.01498
G1 X96.916 Y62.316 E.01498
G1 X96.583 Y61.96 E.01498
G1 X96.329 Y61.544 E.01498
G1 X96.163 Y61.085 E.01498
G1 X96.126 Y60.754 E.01024
;WIPE_START
G1 X96.098 Y60.504 E-1.25759
G1 X96.154 Y59.977 E-2.6531
G1 X96.222 Y59.77 E-1.08931
;WIPE_END
G1 Z.6 F18000
G1 X56.083 Y60.331 Z.6
G1 Z.2
G1 E5 F3600
;TYPE:Inner wall
G1 F3000
G1 X55.948 Y60.267 E.00458
G1 X55.479 Y59.895 E.0184
G1 X55.148 Y59.388 E.01861
G1 X55.024 Y59.079 E.01021
G1 X54.937 Y58.533 E.01698
G1 X54.998 Y58.025 E.01571
G1 X55.107 Y57.703 E.01047
G1 X55.353 Y57.264 E.01546
G1 X55.553 Y57.039 E.00924
G1 X56.028 Y56.679 E.01831
G1 X56.604 Y56.485 E.0187
G1 X56.943 Y56.441 E.01049
G1 X92.057 Y56.437 E1.07897
G1 X92.617 Y56.551 E.01755
G1 X92.996 Y56.695 E.01245
G1 X93.428 Y57.024 E.01669
G1 X93.675 Y57.312 E.01166
G1 X93.958 Y57.846 E.01855
G1 X94.055 Y58.436 E.01839
G1 X94.039 Y58.768 E.01021
G1 X93.898 Y59.311 E.01723
G1 X93.864 Y59.383 E.00245
G1 X93.547 Y59.852 E.01739
G1 X93.291 Y60.1 E.01095
G1 X92.793 Y60.406 E.01794
G1 X92.271 Y60.538 E.01657
G1 X92.057 Y60.563 E.00661
G1 X56.943 Y60.563 E1.07897
G1 X56.27 Y60.42 E.02114
M73 P1 R111
G1 X56.119 Y60.348 E.00513
G1 X56.23 Y59.985 F18000
G1 F3000
G1 X56.133 Y59.935 E.00335
G1 X55.762 Y59.646 E.01446
G1 X55.468 Y59.188 E.01672
G1 X55.36 Y58.837 E.01128
G1 X55.319 Y58.485 E.0109
G1 X55.399 Y57.969 E.01605
G1 X55.655 Y57.494 E.01655
G1 X55.791 Y57.331 E.00654
G1 X56.199 Y57.015 E.01585
G1 X56.717 Y56.844 E.01677
G1 X56.943 Y56.818 E.00698
G1 X92.057 Y56.814 E1.07897
G1 X92.636 Y56.945 E.01823
G1 X92.919 Y57.107 E.01001
G1 X93.283 Y57.405 E.01447
G1 X93.538 Y57.841 E.01552
G1 X93.631 Y58.093 E.00825
G1 X93.684 Y58.605 E.01584
G1 X93.572 Y59.106 E.01574
G1 X93.531 Y59.207 E.00336
G1 X93.237 Y59.636 E.01599
G1 X92.944 Y59.878 E.01167
G1 X92.57 Y60.082 E.01308
G1 X92.057 Y60.186 E.01609
G1 X56.943 Y60.186 E1.07897
G1 X56.364 Y60.055 E.01823
G1 X56.265 Y60.004 E.00342
G1 X56.392 Y59.645 F18000
;TYPE:Outer wall
G1 F3000
G1 X56.027 Y59.372 E.01402
G1 X55.763 Y58.927 E.0159
G1 X55.693 Y58.533 E.01229
G1 X55.766 Y58.069 E.01443
G1 X56.016 Y57.636 E.01538
G1 X56.399 Y57.339 E.01488
G1 X56.886 Y57.196 E.01561
G1 X92.057 Y57.191 E1.0807
G1 X92.571 Y57.321 E.01626
G1 X92.977 Y57.629 E.01568
G1 X93.235 Y58.073 E.01577
G1 X93.308 Y58.572 E.01551
G1 X93.197 Y59.031 E.01449
G1 X92.909 Y59.444 E.01548
G1 X92.485 Y59.714 E.01546
G1 X92.057 Y59.809 E.01347
G1 X56.943 Y59.809 E1.07897
G1 X56.446 Y59.686 E.01572
G1 X56.424 Y59.669 E.00084
;WIPE_START
G1 X56.027 Y59.372 E-2.48078
G1 X55.77 Y58.939 E-2.51922
;WIPE_END
G1 Z.6 F18000
G1 X94.046 Y51.719 Z.6
G1 Z.2
G1 E5 F3600
;TYPE:Inner wall
G1 F3000
G1 X94.039 Y51.768 E.00151
G1 X93.894 Y52.322 E.0176
G1 X93.547 Y52.852 E.01945
G1 X93.291 Y53.1 E.01095
G1 X92.843 Y53.384 E.0163
G1 X92.331 Y53.525 E.01633
G1 X92.057 Y53.563 E.00848
G1 X56.943 Y53.563 E1.07897
G1 X56.27 Y53.42 E.02114
G1 X55.948 Y53.267 E.01094
G1 X55.514 Y52.933 E.01683
G1 X55.148 Y52.388 E.02018
G1 X55.024 Y52.079 E.01021
G1 X54.937 Y51.557 E.01625
G1 X54.996 Y51.04 E.01599
G1 X55.107 Y50.703 E.01093
G1 X55.393 Y50.207 E.01758
G1 X55.86 Y49.789 E.01926
G1 X56.173 Y49.62 E.01095
G1 X56.696 Y49.461 E.01678
G1 X56.886 Y49.441 E.00588
G1 X92.057 Y49.437 E1.0807
G1 X92.62 Y49.552 E.01764
G1 X93.017 Y49.709 E.01313
G1 X93.428 Y50.024 E.01591
G1 X93.675 Y50.312 E.01166
G1 X93.93 Y50.778 E.01631
G1 X94.005 Y51.045 E.00853
G1 X94.061 Y51.612 E.01752
G1 X94.051 Y51.68 E.0021
G1 X93.664 Y51.57 F18000
G1 F3000
G1 X93.671 Y51.683 E.00347
G1 X93.548 Y52.17 E.01544
G1 X93.237 Y52.636 E.01722
G1 X93.001 Y52.84 E.00959
G1 X92.57 Y53.082 E.01516
G1 X92.057 Y53.186 E.01609
G1 X56.943 Y53.186 E1.07897
G1 X56.364 Y53.055 E.01823
G1 X56.171 Y52.963 E.00657
G1 X55.752 Y52.635 E.01635
G1 X55.468 Y52.188 E.01627
G1 X55.394 Y52.003 E.00613
G1 X55.319 Y51.485 E.01608
G1 X55.406 Y50.949 E.01668
G1 X55.655 Y50.494 E.01591
G1 X55.791 Y50.331 E.00654
G1 X56.212 Y50.009 E.01628
G1 X56.717 Y49.844 E.01634
G1 X56.886 Y49.818 E.00526
G1 X92.057 Y49.814 E1.0807
G1 X92.636 Y49.945 E.01823
G1 X92.84 Y50.046 E.00699
G1 X93.274 Y50.394 E.01708
G1 X93.565 Y50.89 E.01768
G1 X93.631 Y51.093 E.00656
G1 X93.661 Y51.53 E.01348
G1 X93.297 Y51.622 F18000
;TYPE:Outer wall
G1 F3000
G1 X93.163 Y52.082 E.01472
G1 X92.877 Y52.47 E.01484
G1 X92.485 Y52.714 E.01417
G1 X92.057 Y52.809 E.01347
G1 X56.943 Y52.809 E1.07897
G1 X56.446 Y52.686 E.01572
G1 X56.034 Y52.383 E.01571
G1 X55.769 Y51.948 E.01565
G1 X55.693 Y51.533 E.01296
G1 X55.766 Y51.069 E.01443
G1 X56.03 Y50.623 E.01592
G1 X56.399 Y50.339 E.01432
G1 X56.886 Y50.196 E.01561
G1 X92.057 Y50.191 E1.0807
G1 X92.573 Y50.322 E.01635
G1 X92.992 Y50.644 E.01623
G1 X93.239 Y51.08 E.01541
G1 X93.302 Y51.583 E.01557
;WIPE_START
G1 X93.163 Y52.082 E-2.58883
G1 X92.877 Y52.47 E-2.41118
;WIPE_END
G1 Z.6 F18000
G1 X92.926 Y42.676 Z.6
G1 Z.2
G1 E5 F3600
