; HEADER_BLOCK_START
; generated by OrcaSlicer 1.8.0-beta1 on 2023-11-05 at 17:00:54
; total layer number: 47
; HEADER_BLOCK_END


;
;
; external perimeters extrusion width = 0.40mm
; perimeters extrusion width = 0.45mm
; infill extrusion width = 0.45mm
; solid infill extrusion width = 0.45mm
; top infill extrusion width = 0.38mm
; first layer extrusion width = 0.42mm

; external perimeters extrusion width = 0.40mm
; perimeters extrusion width = 0.45mm
; infill extrusion width = 0.45mm
; solid infill extrusion width = 0.45mm
; top infill extrusion width = 0.38mm
; first layer extrusion width = 0.42mm

; external perimeters extrusion width = 0.40mm
; perimeters extrusion width = 0.45mm
; infill extrusion width = 0.45mm
; solid infill extrusion width = 0.45mm
; top infill extrusion width = 0.38mm
; first layer extrusion width = 0.42mm

; external perimeters extrusion width = 0.40mm
; perimeters extrusion width = 0.45mm
; infill extrusion width = 0.45mm
; solid infill extrusion width = 0.45mm
; top infill extrusion width = 0.38mm
; first layer extrusion width = 0.42mm

; external perimeters extrusion width = 0.40mm
; perimeters extrusion width = 0.45mm
; infill extrusion width = 0.45mm
; solid infill extrusion width = 0.45mm
; top infill extrusion width = 0.38mm
; first layer extrusion width = 0.42mm

; EXECUTABLE_BLOCK_START
EXCLUDE_OBJECT_DEFINE NAME=mount_test.stl_id_0_copy_0 CENTER=131.099,112.5 POLYGON=[[89.5986,52.5],[172.599,52.5],[172.599,172.5],[89.5986,172.5],[89.5986,52.5]]
EXCLUDE_OBJECT_DEFINE NAME=screen_mountings.stl_4_id_1_copy_0 CENTER=75.2986,107.602 POLYGON=[[67.2986,110.602],[67.305,110.349],[67.3242,110.096],[67.3562,109.845],[67.4009,109.595],[67.4582,109.349],[67.5279,109.105],[67.6098,108.865],[67.7038,108.63],[67.8095,108.4],[67.9268,108.175],[68.0553,107.957],[68.1948,107.746],[68.3447,107.541],[68.5048,107.345],[68.6746,107.157],[74.8537,100.978],[75.0417,100.808],[75.238,100.648],[75.4422,100.498],[75.6537,100.359],[75.8721,100.23],[76.0966,100.113],[76.3268,100.007],[76.562,99.9132],[76.8018,99.8313],[77.0453,99.7616],[77.2921,99.7043],[77.5414,99.6596],[77.7927,99.6276],[78.0453,99.6084],[78.2986,99.602],[78.5518,99.6084],[78.8044,99.6276],[79.0557,99.6596],[79.3051,99.7043],[79.5518,99.7616],[79.7954,99.8313],[80.0351,99.9132],[80.2703,100.007],[80.5005,100.113],[80.7251,100.23],[80.9434,100.359],[81.1549,100.498],[81.3591,100.648],[81.5554,100.808],[81.7434,100.978],[81.9225,101.157],[82.0924,101.345],[82.2525,101.541],[82.4024,101.746],[82.5418,101.957],[82.6703,102.175],[82.7876,102.4],[82.8934,102.63],[82.9873,102.865],[83.0693,103.105],[83.139,103.349],[83.1962,103.595],[83.2409,103.845],[83.2729,104.096],[83.2922,104.349],[83.2986,104.602],[83.2922,104.855],[83.2729,105.108],[83.2409,105.359],[83.1962,105.608],[83.139,105.855],[83.0693,106.099],[82.9873,106.338],[82.8934,106.574],[82.7876,106.804],[82.6703,107.028],[82.5418,107.247],[82.4024,107.458],[82.2525,107.662],[82.0924,107.859],[81.9225,108.047],[75.7434,114.226],[75.5554,114.396],[75.3591,114.556],[75.1549,114.706],[74.9434,114.845],[74.7251,114.974],[74.5005,115.091],[74.2703,115.197],[74.0351,115.291],[73.7954,115.373],[73.5518,115.442],[73.3051,115.5],[73.0557,115.544],[72.8044,115.576],[72.5518,115.596],[72.2986,115.602],[72.0453,115.596],[71.7927,115.576],[71.5414,115.544],[71.2921,115.5],[71.0453,115.442],[70.8018,115.373],[70.562,115.291],[70.3268,115.197],[70.0966,115.091],[69.8721,114.974],[69.6538,114.845],[69.4422,114.706],[69.238,114.556],[69.0417,114.396],[68.8537,114.226],[68.6746,114.047],[68.5048,113.859],[68.3447,113.662],[68.1948,113.458],[68.0553,113.247],[67.9268,113.028],[67.8095,112.804],[67.7038,112.574],[67.6098,112.338],[67.5279,112.099],[67.4582,111.855],[67.4009,111.608],[67.3562,111.359],[67.3242,111.108],[67.305,110.855],[67.2986,110.602]]
EXCLUDE_OBJECT_DEFINE NAME=screen_mountings.stl_3_id_2_copy_0 CENTER=75.2986,85.302 POLYGON=[[67.2986,82.302],[67.305,82.0487],[67.3242,81.7961],[67.3562,81.5448],[67.4009,81.2955],[67.4582,81.0487],[67.5279,80.8051],[67.6098,80.5654],[67.7038,80.3302],[67.8095,80.1],[67.9268,79.8754],[68.0553,79.6571],[68.1948,79.4456],[68.3447,79.2414],[68.5048,79.0451],[68.6746,78.8571],[68.8537,78.678],[69.0417,78.5082],[69.238,78.3481],[69.4422,78.1981],[69.6538,78.0587],[69.8721,77.9302],[70.0966,77.8129],[70.3268,77.7072],[70.562,77.6132],[70.8018,77.5313],[71.0453,77.4616],[71.2921,77.4043],[71.5414,77.3596],[71.7927,77.3276],[72.0453,77.3084],[72.2986,77.302],[72.5518,77.3084],[72.8044,77.3276],[73.0557,77.3596],[73.3051,77.4043],[73.5518,77.4616],[73.7954,77.5313],[74.0351,77.6132],[74.2703,77.7072],[74.5005,77.8129],[74.7251,77.9302],[74.9434,78.0587],[75.1549,78.1981],[75.3591,78.3481],[75.5554,78.5082],[75.7434,78.678],[81.9225,84.8571],[82.0924,85.0451],[82.2525,85.2414],[82.4024,85.4456],[82.5418,85.6571],[82.6703,85.8754],[82.7876,86.1],[82.8934,86.3302],[82.9873,86.5654],[83.0693,86.8051],[83.139,87.0487],[83.1962,87.2955],[83.2409,87.5448],[83.2729,87.7961],[83.2922,88.0487],[83.2986,88.302],[83.2922,88.5552],[83.2729,88.8078],[83.2409,89.0591],[83.1962,89.3084],[83.139,89.5552],[83.0693,89.7988],[82.9873,90.0385],[82.8934,90.2737],[82.7876,90.5039],[82.6703,90.7285],[82.5418,90.9468],[82.4024,91.1583],[82.2525,91.3625],[82.0924,91.5588],[81.9225,91.7468],[81.7434,91.9259],[81.5554,92.0957],[81.3591,92.2558],[81.1549,92.4058],[80.9434,92.5452],[80.7251,92.6737],[80.5005,92.791],[80.2703,92.8967],[80.0351,92.9907],[79.7954,93.0726],[79.5518,93.1423],[79.3051,93.1996],[79.0557,93.2443],[78.8044,93.2763],[78.5518,93.2955],[78.2986,93.302],[78.0453,93.2955],[77.7927,93.2763],[77.5414,93.2443],[77.2921,93.1996],[77.0453,93.1423],[76.8018,93.0726],[76.562,92.9907],[76.3268,92.8967],[76.0966,92.791],[75.8721,92.6737],[75.6537,92.5452],[75.4422,92.4058],[75.238,92.2558],[75.0417,92.0957],[74.8537,91.9259],[68.6746,85.7468],[68.5048,85.5588],[68.3447,85.3625],[68.1948,85.1583],[68.0553,84.9468],[67.9268,84.7285],[67.8095,84.5039],[67.7038,84.2737],[67.6098,84.0385],[67.5279,83.7988],[67.4582,83.5552],[67.4009,83.3084],[67.3562,83.0591],[67.3242,82.8078],[67.305,82.5552],[67.2986,82.302]]
EXCLUDE_OBJECT_DEFINE NAME=screen_mountings.stl_1_id_3_copy_0 CENTER=60.4014,93.4519 POLYGON=[[52.4014,90.4519],[52.4078,90.1987],[52.4271,89.9461],[52.4591,89.6948],[52.5038,89.4455],[52.561,89.1987],[52.6307,88.9551],[52.7127,88.7154],[52.8066,88.4802],[52.9124,88.25],[53.0297,88.0254],[53.1582,87.8071],[53.2976,87.5956],[53.4476,87.3914],[53.6076,87.1951],[53.7775,87.0071],[53.9566,86.828],[54.1446,86.6582],[54.3409,86.4981],[54.5451,86.3481],[54.7566,86.2087],[54.9749,86.0802],[55.1995,85.9629],[55.4297,85.8572],[55.6649,85.7632],[55.9046,85.6813],[56.1482,85.6116],[56.3949,85.5543],[56.6443,85.5096],[56.8956,85.4776],[57.1482,85.4584],[57.4014,85.4519],[57.6547,85.4584],[57.9073,85.4776],[58.1586,85.5096],[58.4079,85.5543],[58.6547,85.6116],[58.8982,85.6813],[59.138,85.7632],[59.3732,85.8572],[59.6034,85.9629],[59.8279,86.0802],[60.0463,86.2087],[60.2578,86.3481],[60.462,86.4981],[60.6583,86.6582],[60.8463,86.828],[67.0254,93.0071],[67.1952,93.1951],[67.3553,93.3914],[67.5052,93.5956],[67.6447,93.8071],[67.7732,94.0254],[67.8905,94.25],[67.9962,94.4802],[68.0902,94.7154],[68.1721,94.9551],[68.2418,95.1987],[68.2991,95.4455],[68.3438,95.6948],[68.3758,95.9461],[68.395,96.1987],[68.4014,96.4519],[68.395,96.7052],[68.3758,96.9578],[68.3438,97.2091],[68.2991,97.4584],[68.2418,97.7052],[68.1721,97.9488],[68.0902,98.1885],[67.9962,98.4237],[67.8905,98.6539],[67.7732,98.8785],[67.6447,99.0968],[67.5052,99.3083],[67.3553,99.5125],[67.1952,99.7088],[67.0254,99.8968],[66.8463,100.076],[66.6583,100.246],[66.462,100.406],[66.2578,100.556],[66.0463,100.695],[65.8279,100.824],[65.6034,100.941],[65.3732,101.047],[65.138,101.141],[64.8982,101.223],[64.6547,101.292],[64.4079,101.35],[64.1586,101.394],[63.9073,101.426],[63.6547,101.446],[63.4014,101.452],[63.1482,101.446],[62.8956,101.426],[62.6443,101.394],[62.3949,101.35],[62.1482,101.292],[61.9046,101.223],[61.6649,101.141],[61.4296,101.047],[61.1995,100.941],[60.9749,100.824],[60.7566,100.695],[60.5451,100.556],[60.3409,100.406],[60.1446,100.246],[59.9566,100.076],[53.7775,93.8968],[53.6076,93.7088],[53.4476,93.5125],[53.2976,93.3083],[53.1582,93.0968],[53.0297,92.8785],[52.9124,92.6539],[52.8066,92.4237],[52.7127,92.1885],[52.6307,91.9488],[52.561,91.7052],[52.5038,91.4584],[52.4591,91.2091],[52.4271,90.9578],[52.4078,90.7052],[52.4014,90.4519]]
EXCLUDE_OBJECT_DEFINE NAME=screen_mountings.stl_2_id_4_copy_0 CENTER=75.2986,128.754 POLYGON=[[67.2986,131.754],[67.305,131.501],[67.3242,131.248],[67.3562,130.997],[67.4009,130.748],[67.4582,130.501],[67.5279,130.257],[67.6098,130.018],[67.7038,129.782],[67.8095,129.552],[67.9268,129.328],[68.0553,129.109],[68.1948,128.898],[68.3447,128.694],[68.5048,128.497],[68.6746,128.309],[74.8537,122.13],[75.0417,121.96],[75.238,121.8],[75.4422,121.65],[75.6538,121.511],[75.8721,121.382],[76.0966,121.265],[76.3268,121.159],[76.562,121.065],[76.8018,120.983],[77.0453,120.914],[77.2921,120.856],[77.5414,120.812],[77.7927,120.78],[78.0453,120.761],[78.2986,120.754],[78.5518,120.761],[78.8044,120.78],[79.0557,120.812],[79.3051,120.856],[79.5518,120.914],[79.7954,120.983],[80.0351,121.065],[80.2703,121.159],[80.5005,121.265],[80.7251,121.382],[80.9434,121.511],[81.1549,121.65],[81.3591,121.8],[81.5554,121.96],[81.7434,122.13],[81.9225,122.309],[82.0924,122.497],[82.2524,122.694],[82.4024,122.898],[82.5418,123.109],[82.6703,123.328],[82.7876,123.552],[82.8934,123.782],[82.9873,124.018],[83.0693,124.257],[83.139,124.501],[83.1962,124.748],[83.2409,124.997],[83.2729,125.248],[83.2922,125.501],[83.2986,125.754],[83.2922,126.007],[83.2729,126.26],[83.2409,126.511],[83.1962,126.761],[83.139,127.007],[83.0693,127.251],[82.9873,127.491],[82.8934,127.726],[82.7876,127.956],[82.6703,128.181],[82.5418,128.399],[82.4024,128.61],[82.2524,128.815],[82.0924,129.011],[81.9225,129.199],[75.7434,135.378],[75.5554,135.548],[75.3591,135.708],[75.1549,135.858],[74.9434,135.997],[74.7251,136.126],[74.5005,136.243],[74.2704,136.349],[74.0351,136.443],[73.7954,136.525],[73.5518,136.594],[73.3051,136.652],[73.0557,136.696],[72.8044,136.728],[72.5518,136.748],[72.2986,136.754],[72.0453,136.748],[71.7927,136.728],[71.5414,136.696],[71.2921,136.652],[71.0453,136.594],[70.8018,136.525],[70.562,136.443],[70.3268,136.349],[70.0966,136.243],[69.8721,136.126],[69.6538,135.997],[69.4422,135.858],[69.238,135.708],[69.0417,135.548],[68.8537,135.378],[68.6746,135.199],[68.5048,135.011],[68.3447,134.815],[68.1948,134.61],[68.0553,134.399],[67.9268,134.181],[67.8095,133.956],[67.7038,133.726],[67.6098,133.491],[67.5279,133.251],[67.4582,133.007],[67.4009,132.761],[67.3562,132.511],[67.3242,132.26],[67.305,132.007],[67.2986,131.754]]
M73 P0 R71
;TYPE:Custom
M413 S0 ; disable Power Loss Recovery
G90 ; use absolute coordinates
M83 ; extruder relative mode
M104 S120 ; set temporary nozzle temp to prevent oozing during homing and auto bed leveling
M140 S60 ; set final bed temp
G4 S10 ; allow partial nozzle warmup
G28 ; home all axis
;G29 ; run abl mesh
M420 S1 ; load mesh
G1 Z50 F240
G1 X2 Y10 F3000
M104 S210 ; set final nozzle temp
M190 S60 ; wait for bed temp to stabilize
M109 S210 ; wait for nozzle temp to stabilize
G1 Z0.28 F240
G92 E0
G1 Y140 E10 F1500 ; prime the nozzle
G1 X2.3 F5000
G92 E0
G1 Y10 E10 F1200 ; prime the nozzle
G92 E0
G90
G21
M83 ; use relative distances for extrusion
; filament start gcode
M106 S0
;LAYER_CHANGE
;Z:0.2
;HEIGHT:0.2
;BEFORE_LAYER_CHANGE
G92 E0
;0.2


G1 E-5 F3600
;AFTER_LAYER_CHANGE
;0.2
;_SET_FAN_SPEED_CHANGING_LAYER
SET_VELOCITY_LIMIT ACCEL=700 ACCEL_TO_DECEL=350
M73 P0 R70
G1 Z.4 F18000
G1 X65.185 Y67.683
G1 Z.4
G1 Z.2
G1 E5 F3600
;TYPE:Skirt
;WIDTH:0.42
G1 F3000
G1 X85.447 Y48.169 E.86439
G1 X86.038 Y47.672 E.02374
G1 X86.78 Y47.205 E.02693
G1 X87.85 Y46.767 E.03555
G1 X88.725 Y46.566 E.02757
G1 X89.599 Y46.498 E.02693
G1 X172.701 Y46.502 E2.5535
G1 X174.229 Y46.731 E.04748
G1 X175.327 Y47.173 E.03638
G1 X176.18 Y47.697 E.03075
G1 X176.855 Y48.276 E.02732
G1 X177.545 Y49.106 E.03319
G1 X178 Y49.897 E.02805
G1 X178.395 Y50.968 E.03507
G1 X178.598 Y52.41 E.04473
G1 X178.601 Y172.5 E3.69004
G1 X178.517 Y173.475 E.03007
M73 P1 R70
G1 X178.293 Y174.364 E.02817
G1 X177.926 Y175.229 E.02886
G1 X177.402 Y176.081 E.03075
G1 X176.676 Y176.898 E.03358
G1 X175.418 Y177.795 E.04748
G1 X174.13 Y178.297 E.04245
G1 X172.599 Y178.502 E.04749
G1 X89.599 Y178.502 E2.55036
G1 X88.624 Y178.418 E.03007
G1 X87.735 Y178.194 E.02817
G1 X86.87 Y177.827 E.02886
G1 X86.017 Y177.303 E.03075
G1 X85.2 Y176.577 E.03358
G1 X84.652 Y175.894 E.02693
G1 X84.282 Y175.283 E.02193
G1 X62.744 Y137.207 E1.3442
G1 X62.217 Y136.153 E.03619
G1 X47.043 Y94.159 E1.37202
G1 X46.739 Y93.155 E.03223
G1 X46.479 Y91.758 E.04366
G1 X46.404 Y90.659 E.03386
G1 X46.553 Y88.628 E.06257
G1 X47.062 Y86.699 E.0613
G1 X47.497 Y85.668 E.03438
G1 X48.276 Y84.309 E.04813
G1 X48.801 Y83.592 E.02732
G1 X49.727 Y82.57 E.04236
G1 X65.156 Y67.711 E.6582
; printing object mount_test.stl id:0 copy 0
;WIPE_START
G1 X65.876 Y67.017 E-5
;WIPE_END
EXCLUDE_OBJECT_START NAME=mount_test.stl_id_0_copy_0
G1 Z.6 F18000
G1 X85.162 Y67.711 Z.6
G1 Z.2
G1 E5 F3600
;TYPE:Brim
G1 F3000
G1 X85.162 Y52.507 E.46716
G1 X85.211 Y51.858 E.02001
G1 X85.352 Y51.232 E.01971
G1 X85.707 Y50.398 E.02786
G1 X86.105 Y49.777 E.02267
G1 X86.533 Y49.297 E.01976
G1 X87.028 Y48.885 E.01979
G1 X87.577 Y48.552 E.01971
G1 X88.402 Y48.233 E.02717
G1 X89.032 Y48.101 E.01977
G1 X89.605 Y48.064 E.01765
G1 X172.592 Y48.064 E2.54995
G1 X173.241 Y48.112 E.02001
G1 X173.866 Y48.254 E.01971
G1 X174.701 Y48.608 E.02786
G1 X175.322 Y49.006 E.02267
G1 X175.802 Y49.435 E.01976
G1 X176.214 Y49.93 E.01979
G1 X176.546 Y50.478 E.01971
G1 X176.866 Y51.303 E.02717
G1 X176.997 Y51.933 E.01977
G1 X177.035 Y52.506 E.01765
G1 X177.035 Y172.493 E3.68686
G1 X176.987 Y173.142 E.02001
G1 X176.845 Y173.768 E.01971
G1 X176.491 Y174.602 E.02786
G1 X176.092 Y175.223 E.02267
G1 X175.664 Y175.703 E.01976
G1 X175.169 Y176.115 E.01979
G1 X174.62 Y176.448 E.01971
G1 X173.796 Y176.767 E.02717
G1 X173.166 Y176.899 E.01977
G1 X172.592 Y176.936 E.01765
G1 X89.606 Y176.936 E2.54995
G1 X88.956 Y176.888 E.02001
G1 X88.331 Y176.746 E.01971
G1 X87.496 Y176.392 E.02786
G1 X86.875 Y175.994 E.02267
G1 X86.395 Y175.565 E.01976
G1 X85.983 Y175.07 E.01979
G1 X85.651 Y174.522 E.01971
G1 X85.331 Y173.697 E.02717
G1 X85.2 Y173.067 E.01977
G1 X85.162 Y172.494 E.01765
G1 X85.162 Y67.751 E3.21847
G1 X85.539 Y67.751 F18000
G1 F3000
G1 X85.539 Y52.525 E.46783
G1 X85.584 Y51.922 E.01858
G1 X85.717 Y51.339 E.01837
G1 X86.037 Y50.583 E.02523
G1 X86.401 Y50.013 E.02079
G1 X86.802 Y49.563 E.01851
G1 X87.255 Y49.188 E.01806
G1 X87.753 Y48.888 E.01787
G1 X88.518 Y48.594 E.02518
G1 X89.075 Y48.477 E.01748
G1 X89.621 Y48.441 E.01681
G1 X172.582 Y48.441 E2.54916
G1 X173.177 Y48.485 E.01833
G1 X173.74 Y48.612 E.01775
G1 X174.515 Y48.939 E.02585
G1 X175.086 Y49.303 E.02079
G1 X175.524 Y49.692 E.018
G1 X175.91 Y50.157 E.01858
G1 X176.21 Y50.655 E.01787
G1 X176.505 Y51.419 E.02518
G1 X176.621 Y51.976 E.01748
G1 X176.658 Y52.522 E.01681
G1 X176.658 Y172.475 E3.6858
G1 X176.613 Y173.078 E.01858
G1 X176.481 Y173.661 E.01837
G1 X176.16 Y174.417 E.02523
G1 X175.796 Y174.987 E.02079
G1 X175.395 Y175.437 E.01851
G1 X174.942 Y175.812 E.01806
G1 X174.444 Y176.112 E.01787
G1 X173.679 Y176.406 E.02518
G1 X173.122 Y176.523 E.01748
G1 X172.576 Y176.559 E.01681
G1 X89.624 Y176.559 E2.5489
G1 X89.021 Y176.515 E.01858
G1 X88.438 Y176.382 E.01837
G1 X87.682 Y176.061 E.02523
G1 X87.111 Y175.697 E.02079
G1 X86.662 Y175.296 E.01851
G1 X86.287 Y174.843 E.01806
G1 X85.987 Y174.345 E.01787
G1 X85.692 Y173.581 E.02518
G1 X85.576 Y173.024 E.01748
G1 X85.539 Y172.478 E.01681
G1 X85.539 Y67.791 E3.21674
G1 X85.916 Y67.791 F18000
G1 F3000
G1 X85.916 Y52.543 E.46851
G1 X85.957 Y51.987 E.01715
G1 X86.081 Y51.446 E.01703
G1 X86.369 Y50.768 E.02264
G1 X86.698 Y50.249 E.0189
G1 X87.071 Y49.83 E.01724
